X: 151
T:Caledonian Country Dances
M:2/4
L:1/8
C:1754
K:F
g|"F"a/2g/2f/2e/2 fc|"F"A2Fc|"F"A/2B/2c Fc|"F"AG "C"Gg|"F"a/2g/2f/2e/2 f
c|!
"F"A2 Fc|"F"A/2B/2c "C7"GB|"F"AF F:||:c|"F"AF cF|"Bb"dF "F"cF|"F"AF cF|!
"Bb"d/2c/2B/2A/2 "C7"GB|"F"AF cF|"Bb"dF "F"cF|"F"A/2B/2c "C7"GB|"F"AF F:
||
